icons/modern/smiling-face-with-hearts.svg

<svg width="32" height="32" viewBox="0 0 32 32" fill="none" xmlns="http://www.w3.org/2000/svg">
<g clip-path="url(#clip0_20_194)">
<path d="M15.9989 29.9978C25.3333 29.9978 29.9978 23.7303 29.9978 15.9989C29.9978 8.26751 25.3333 2 15.9989 2C6.66443 2 2 8.26751 2 15.9989C2 23.7303 6.66443 29.9978 15.9989 29.9978Z" fill="url(#paint0_radial_20_194)"/>
<path d="M15.9989 29.9978C25.3333 29.9978 29.9978 23.7303 29.9978 15.9989C29.9978 8.26751 25.3333 2 15.9989 2C6.66443 2 2 8.26751 2 15.9989C2 23.7303 6.66443 29.9978 15.9989 29.9978Z" fill="url(#paint1_radial_20_194)"/>
<path d="M15.9989 29.9978C25.3333 29.9978 29.9978 23.7303 29.9978 15.9989C29.9978 8.26751 25.3333 2 15.9989 2C6.66443 2 2 8.26751 2 15.9989C2 23.7303 6.66443 29.9978 15.9989 29.9978Z" fill="url(#paint2_radial_20_194)"/>
<path d="M15.9989 29.9978C25.3333 29.9978 29.9978 23.7303 29.9978 15.9989C29.9978 8.26751 25.3333 2 15.9989 2C6.66443 2 2 8.26751 2 15.9989C2 23.7303 6.66443 29.9978 15.9989 29.9978Z" fill="url(#paint3_radial_20_194)" fill-opacity="0.6"/>
<path d="M15.9989 29.9978C25.3333 29.9978 29.9978 23.7303 29.9978 15.9989C29.9978 8.26751 25.3333 2 15.9989 2C6.66443 2 2 8.26751 2 15.9989C2 23.7303 6.66443 29.9978 15.9989 29.9978Z" fill="url(#paint4_radial_20_194)"/>
<path d="M15.9989 29.9978C25.3333 29.9978 29.9978 23.7303 29.9978 15.9989C29.9978 8.26751 25.3333 2 15.9989 2C6.66443 2 2 8.26751 2 15.9989C2 23.7303 6.66443 29.9978 15.9989 29.9978Z" fill="url(#paint5_radial_20_194)"/>
<path d="M15.9989 29.9978C25.3333 29.9978 29.9978 23.7303 29.9978 15.9989C29.9978 8.26751 25.3333 2 15.9989 2C6.66443 2 2 8.26751 2 15.9989C2 23.7303 6.66443 29.9978 15.9989 29.9978Z" fill="url(#paint6_radial_20_194)"/>
<path d="M15.9989 29.9978C25.3333 29.9978 29.9978 23.7303 29.9978 15.9989C29.9978 8.26751 25.3333 2 15.9989 2C6.66443 2 2 8.26751 2 15.9989C2 23.7303 6.66443 29.9978 15.9989 29.9978Z" fill="url(#paint7_radial_20_194)"/>
<path d="M3.00021 1.09997C4.2129 0.740272 5.50009 1.49998 6.00009 1.99998C6.49997 1.50001 8.16818 0.168183 9.75 1.75001C11.0248 3.02476 10.5002 4.99997 9.50015 6.49997C8.91141 7.38308 7.38383 8.7717 6.1531 9.70922C5.50894 10.1999 4.61341 10.0545 4.0674 9.45654C3.14284 8.44398 1.97268 7.14513 1.4001 5.99997C0.400103 3.99997 1.4003 1.57453 3.00021 1.09997Z" fill="url(#paint8_linear_20_194)"/>
<g opacity="0.5" filter="url(#filter0_f_20_194)">
<path d="M7.5 11.5C7.5 11.5 7.75 9.5 10 9.5C12.25 9.5 12.5 11.5 12.5 11.5" stroke="#9A4609" stroke-width="2" stroke-linecap="round"/>
</g>
<g opacity="0.5" filter="url(#filter1_f_20_194)">
<path d="M18.5 11.5C18.5 11.5 19 9.5 21 9.5C23 9.5 23.5 11.5 23.5 11.5" stroke="#9A4609" stroke-width="2" stroke-linecap="round"/>
</g>
<path d="M8 11C8 11 8.25 9 10.5 9C12.75 9 13 11 13 11" stroke="#43273B" stroke-width="2" stroke-linecap="round" stroke-linejoin="round"/>
<g opacity="0.26" filter="url(#filter2_f_20_194)">
<path d="M8.25 10.75C8.25 10.75 8.5 8.75 10.75 8.75C13 8.75 13.25 10.75 13.25 10.75" stroke="white" stroke-width="0.75" stroke-linecap="round" stroke-linejoin="round"/>
</g>
<path d="M19 11C19 11 19.5 9 21.5 9C23.5 9 24 11 24 11" stroke="#43273B" stroke-width="2" stroke-linecap="round" stroke-linejoin="round"/>
<g opacity="0.26" filter="url(#filter3_f_20_194)">
<path d="M19.25 10.75C19.25 10.75 19.5 8.75 21.75 8.75C24 8.75 24.25 10.75 24.25 10.75" stroke="white" stroke-width="0.75" stroke-linecap="round" stroke-linejoin="round"/>
</g>
<path d="M4.00015 28C2.88205 26.882 2.50013 25 3.50012 24C4.50011 23 6.50007 23.5 6.50007 23.5C6.50007 23.5 7.00015 22.25 8.50015 22.5C10.5002 22.75 10.7502 25 10.2502 26.5C9.8681 27.6462 8.94272 28.8686 8.2707 29.6561C7.83861 30.1624 7.10261 30.2351 6.55273 29.86C5.62817 29.2293 4.3159 28.3157 4.00015 28Z" fill="url(#paint9_linear_20_194)"/>
<g filter="url(#filter4_f_20_194)">
<path d="M21 18.1C22.5 17.6 24.1667 19 24.5 19.5C24.6667 19 25.4 18 27 18C29 18 27.5571 20.1073 27 21.5C26.3751 23.0622 25.3598 24.9797 24.6859 26.1985C24.355 26.7971 23.5369 26.8749 23.0937 26.354C22.1005 25.1867 20.5722 23.3584 20 22.5C19 21 19.1026 18.7325 21 18.1Z" fill="#E4694E"/>
</g>
<path d="M23 17.1C24.5 16.6 26.1667 18 26.5 18.5C26.6667 18 27.4 17 29 17C31 17 31.5571 19.1073 31 20.5C30.2698 22.3255 27.94 24.6362 26.736 25.7502C26.3333 26.1228 25.7111 26.0769 25.3546 25.6599C24.3916 24.5336 22.6252 22.4378 22 21.5C21 20 21.1026 17.7325 23 17.1Z" fill="url(#paint10_linear_20_194)"/>
<path d="M12 16C12 17.3333 12.8 20 16 20C19.2 20 20 17.3333 20 16" stroke="url(#paint11_radial_20_194)" stroke-width="2" stroke-linecap="round"/>
<g opacity="0.8" filter="url(#filter5_f_20_194)">
<path d="M9.5 2.5L7 5" stroke="white"/>
</g>
<g opacity="0.8" filter="url(#filter6_f_20_194)">
<path d="M25 18.5L27.5 21.5L29.5 19" stroke="white"/>
</g>
<g filter="url(#filter7_f_20_194)">
<circle cx="8.5" cy="24.5" r="1" fill="white"/>
</g>
<g opacity="0.6" filter="url(#filter8_f_20_194)">
<path d="M7.5 29.5L9 26" stroke="#F944A5" stroke-width="2"/>
</g>
<g filter="url(#filter9_f_20_194)">
<path d="M26.5 24.5L23 20" stroke="#F944A5"/>
</g>
<g filter="url(#filter10_f_20_194)">
<path d="M5.5 8.5L8 6" stroke="#F944A5"/>
</g>
</g>
<defs>
<filter id="filter0_f_20_194" x="5" y="7" width="10" height="7.00012" filterUnits="userSpaceOnUse" color-interpolation-filters="sRGB">
<feFlood flood-opacity="0" result="BackgroundImageFix"/>
<feBlend mode="normal" in="SourceGraphic" in2="BackgroundImageFix" result="shape"/>
<feGaussianBlur stdDeviation="0.75" result="effect1_foregroundBlur_20_194"/>
</filter>
<filter id="filter1_f_20_194" x="15.9998" y="7" width="10.0005" height="7.00024" filterUnits="userSpaceOnUse" color-interpolation-filters="sRGB">
<feFlood flood-opacity="0" result="BackgroundImageFix"/>
<feBlend mode="normal" in="SourceGraphic" in2="BackgroundImageFix" result="shape"/>
<feGaussianBlur stdDeviation="0.75" result="effect1_foregroundBlur_20_194"/>
</filter>
<filter id="filter2_f_20_194" x="6.375" y="6.875" width="8.75" height="5.75006" filterUnits="userSpaceOnUse" color-interpolation-filters="sRGB">
<feFlood flood-opacity="0" result="BackgroundImageFix"/>
<feBlend mode="normal" in="SourceGraphic" in2="BackgroundImageFix" result="shape"/>
<feGaussianBlur stdDeviation="0.75" result="effect1_foregroundBlur_20_194"/>
</filter>
<filter id="filter3_f_20_194" x="17.375" y="6.875" width="8.75" height="5.75006" filterUnits="userSpaceOnUse" color-interpolation-filters="sRGB">
<feFlood flood-opacity="0" result="BackgroundImageFix"/>
<feBlend mode="normal" in="SourceGraphic" in2="BackgroundImageFix" result="shape"/>
<feGaussianBlur stdDeviation="0.75" result="effect1_foregroundBlur_20_194"/>
</filter>
<filter id="filter4_f_20_194" x="17.3735" y="15.9938" width="12.6526" height="12.7068" filterUnits="userSpaceOnUse" color-interpolation-filters="sRGB">
<feFlood flood-opacity="0" result="BackgroundImageFix"/>
<feBlend mode="normal" in="SourceGraphic" in2="BackgroundImageFix" result="shape"/>
<feGaussianBlur stdDeviation="1" result="effect1_foregroundBlur_20_194"/>
</filter>
<filter id="filter5_f_20_194" x="4.64648" y="0.146423" width="7.20703" height="7.20715" filterUnits="userSpaceOnUse" color-interpolation-filters="sRGB">
<feFlood flood-opacity="0" result="BackgroundImageFix"/>
<feBlend mode="normal" in="SourceGraphic" in2="BackgroundImageFix" result="shape"/>
<feGaussianBlur stdDeviation="1" result="effect1_foregroundBlur_20_194"/>
</filter>
<filter id="filter6_f_20_194" x="22.616" y="16.1799" width="9.27441" height="8.1106" filterUnits="userSpaceOnUse" color-interpolation-filters="sRGB">
<feFlood flood-opacity="0" result="BackgroundImageFix"/>
<feBlend mode="normal" in="SourceGraphic" in2="BackgroundImageFix" result="shape"/>
<feGaussianBlur stdDeviation="1" result="effect1_foregroundBlur_20_194"/>
</filter>
<filter id="filter7_f_20_194" x="5.5" y="21.5" width="6" height="6" filterUnits="userSpaceOnUse" color-interpolation-filters="sRGB">
<feFlood flood-opacity="0" result="BackgroundImageFix"/>
<feBlend mode="normal" in="SourceGraphic" in2="BackgroundImageFix" result="shape"/>
<feGaussianBlur stdDeviation="1" result="effect1_foregroundBlur_20_194"/>
</filter>
<filter id="filter8_f_20_194" x="5.58081" y="24.6061" width="5.33838" height="6.28784" filterUnits="userSpaceOnUse" color-interpolation-filters="sRGB">
<feFlood flood-opacity="0" result="BackgroundImageFix"/>
<feBlend mode="normal" in="SourceGraphic" in2="BackgroundImageFix" result="shape"/>
<feGaussianBlur stdDeviation="0.5" result="effect1_foregroundBlur_20_194"/>
</filter>
<filter id="filter9_f_20_194" x="20.6052" y="17.6931" width="8.28955" height="9.11389" filterUnits="userSpaceOnUse" color-interpolation-filters="sRGB">
<feFlood flood-opacity="0" result="BackgroundImageFix"/>
<feBlend mode="normal" in="SourceGraphic" in2="BackgroundImageFix" result="shape"/>
<feGaussianBlur stdDeviation="1" result="effect1_foregroundBlur_20_194"/>
</filter>
<filter id="filter10_f_20_194" x="3.14648" y="3.64642" width="7.20703" height="7.20715" filterUnits="userSpaceOnUse" color-interpolation-filters="sRGB">
<feFlood flood-opacity="0" result="BackgroundImageFix"/>
<feBlend mode="normal" in="SourceGraphic" in2="BackgroundImageFix" result="shape"/>
<feGaussianBlur stdDeviation="1" result="effect1_foregroundBlur_20_194"/>
</filter>
<radialGradient id="paint0_radial_20_194" cx="0" cy="0" r="1" gradientUnits="userSpaceOnUse" gradientTransform="translate(25.5 9) rotate(132.839) scale(37.5033)">
<stop stop-color="#FFF478"/>
<stop offset="0.474827" stop-color="#FFB02E"/>
<stop offset="1" stop-color="#F70A8D"/>
</radialGradient>
<radialGradient id="paint1_radial_20_194" cx="0" cy="0" r="1" gradientUnits="userSpaceOnUse" gradientTransform="translate(25.5 9) rotate(131.878) scale(38.9487)">
<stop stop-color="#FFF478"/>
<stop offset="0.474827" stop-color="#FFB02E"/>
<stop offset="1" stop-color="#F70A8D"/>
</radialGradient>
<radialGradient id="paint2_radial_20_194" cx="0" cy="0" r="1" gradientUnits="userSpaceOnUse" gradientTransform="translate(16 12.5) rotate(101.31) scale(17.8466 22.8581)">
<stop offset="0.787821" stop-color="#F59639" stop-opacity="0"/>
<stop offset="0.972509" stop-color="#FF7DCE"/>
</radialGradient>
<radialGradient id="paint3_radial_20_194" cx="0" cy="0" r="1" gradientUnits="userSpaceOnUse" gradientTransform="translate(18 14) rotate(135) scale(41.0122)">
<stop offset="0.314853" stop-opacity="0"/>
<stop offset="1"/>
</radialGradient>
<radialGradient id="paint4_radial_20_194" cx="0" cy="0" r="1" gradientUnits="userSpaceOnUse" gradientTransform="translate(16 17) rotate(77.692) scale(28.1469)">
<stop offset="0.507903" stop-color="#7D6133" stop-opacity="0"/>
<stop offset="1" stop-color="#715B32"/>
</radialGradient>
<radialGradient id="paint5_radial_20_194" cx="0" cy="0" r="1" gradientUnits="userSpaceOnUse" gradientTransform="translate(16.5 16.5) rotate(55.7131) scale(13.3135 9.65032)">
<stop stop-color="#FFB849"/>
<stop offset="1" stop-color="#FFB847" stop-opacity="0"/>
</radialGradient>
<radialGradient id="paint6_radial_20_194" cx="0" cy="0" r="1" gradientUnits="userSpaceOnUse" gradientTransform="translate(20.5 18) rotate(9.86581) scale(11.6726)">
<stop stop-color="#FFA64B"/>
<stop offset="0.900412" stop-color="#FFAE46" stop-opacity="0"/>
</radialGradient>
<radialGradient id="paint7_radial_20_194" cx="0" cy="0" r="1" gradientUnits="userSpaceOnUse" gradientTransform="translate(17.5 15) rotate(43.9708) scale(59.0529)">
<stop offset="0.185425" stop-opacity="0"/>
<stop offset="1" stop-opacity="0.4"/>
</radialGradient>
<linearGradient id="paint8_linear_20_194" x1="4.5" y1="3.5" x2="8.13606" y2="8.27701" gradientUnits="userSpaceOnUse">
<stop stop-color="#DC2E50"/>
<stop offset="1" stop-color="#F70A8D"/>
</linearGradient>
<linearGradient id="paint9_linear_20_194" x1="6" y1="24.5" x2="9.34217" y2="29.9066" gradientUnits="userSpaceOnUse">
<stop stop-color="#CA0B4A"/>
<stop offset="1" stop-color="#F70A8D"/>
</linearGradient>
<linearGradient id="paint10_linear_20_194" x1="29.0995" y1="18.0367" x2="25.8756" y2="25.428" gradientUnits="userSpaceOnUse">
<stop stop-color="#CA0B4A"/>
<stop offset="1" stop-color="#F70A8D"/>
</linearGradient>
<radialGradient id="paint11_radial_20_194" cx="0" cy="0" r="1" gradientUnits="userSpaceOnUse" gradientTransform="translate(16 12) rotate(90) scale(10.5 6.42871)">
<stop offset="0.555727" stop-color="#584343"/>
<stop offset="0.740289" stop-color="#66525E"/>
<stop offset="1" stop-color="#4E2553"/>
<stop offset="1" stop-color="#522C57"/>
</radialGradient>
<clipPath id="clip0_20_194">
<rect width="32" height="32" fill="white"/>
</clipPath>
</defs>
</svg>

<svg width="32" height="32" fill="none" xmlns="http://www.w3.org/2000/svg"><g clip-path="url(#a)"><path d="M15.999 29.998c9.334 0 13.999-6.268 13.999-14 0-7.73-4.665-13.998-14-13.998C6.665 2 2 8.268 2 15.999c0 7.731 4.664 13.999 13.999 13.999Z" fill="url(#b)"/><path d="M15.999 29.998c9.334 0 13.999-6.268 13.999-14 0-7.73-4.665-13.998-14-13.998C6.665 2 2 8.268 2 15.999c0 7.731 4.664 13.999 13.999 13.999Z" fill="url(#c)"/><path d="M15.999 29.998c9.334 0 13.999-6.268 13.999-14 0-7.73-4.665-13.998-14-13.998C6.665 2 2 8.268 2 15.999c0 7.731 4.664 13.999 13.999 13.999Z" fill="url(#d)"/><path d="M15.999 29.998c9.334 0 13.999-6.268 13.999-14 0-7.73-4.665-13.998-14-13.998C6.665 2 2 8.268 2 15.999c0 7.731 4.664 13.999 13.999 13.999Z" fill="url(#e)" fill-opacity=".6"/><path d="M15.999 29.998c9.334 0 13.999-6.268 13.999-14 0-7.73-4.665-13.998-14-13.998C6.665 2 2 8.268 2 15.999c0 7.731 4.664 13.999 13.999 13.999Z" fill="url(#f)"/><path d="M15.999 29.998c9.334 0 13.999-6.268 13.999-14 0-7.73-4.665-13.998-14-13.998C6.665 2 2 8.268 2 15.999c0 7.731 4.664 13.999 13.999 13.999Z" fill="url(#g)"/><path d="M15.999 29.998c9.334 0 13.999-6.268 13.999-14 0-7.73-4.665-13.998-14-13.998C6.665 2 2 8.268 2 15.999c0 7.731 4.664 13.999 13.999 13.999Z" fill="url(#h)"/><path d="M15.999 29.998c9.334 0 13.999-6.268 13.999-14 0-7.73-4.665-13.998-14-13.998C6.665 2 2 8.268 2 15.999c0 7.731 4.664 13.999 13.999 13.999Z" fill="url(#i)"/><path d="M3 1.1c1.213-.36 2.5.4 3 .9.5-.5 2.168-1.832 3.75-.25C11.025 3.025 10.5 5 9.5 6.5c-.589.883-2.116 2.272-3.347 3.21-.644.49-1.54.345-2.086-.253C3.143 8.444 1.973 7.145 1.4 6c-1-2 0-4.425 1.6-4.9Z" fill="url(#j)"/><g opacity=".5" filter="url(#k)"><path d="M7.5 11.5s.25-2 2.5-2 2.5 2 2.5 2" stroke="#9A4609" stroke-width="2" stroke-linecap="round"/></g><g opacity=".5" filter="url(#l)"><path d="M18.5 11.5s.5-2 2.5-2 2.5 2 2.5 2" stroke="#9A4609" stroke-width="2" stroke-linecap="round"/></g><path d="M8 11s.25-2 2.5-2 2.5 2 2.5 2" stroke="#43273B" stroke-width="2" stroke-linecap="round" stroke-linejoin="round"/><g opacity=".26" filter="url(#m)"><path d="M8.25 10.75s.25-2 2.5-2 2.5 2 2.5 2" stroke="#fff" stroke-width=".75" stroke-linecap="round" stroke-linejoin="round"/></g><path d="M19 11s.5-2 2.5-2 2.5 2 2.5 2" stroke="#43273B" stroke-width="2" stroke-linecap="round" stroke-linejoin="round"/><g opacity=".26" filter="url(#n)"><path d="M19.25 10.75s.25-2 2.5-2 2.5 2 2.5 2" stroke="#fff" stroke-width=".75" stroke-linecap="round" stroke-linejoin="round"/></g><path d="M4 28c-1.118-1.118-1.5-3-.5-4s3-.5 3-.5.5-1.25 2-1c2 .25 2.25 2.5 1.75 4-.382 1.146-1.307 2.369-1.98 3.156-.431.506-1.167.58-1.717.204C5.628 29.23 4.316 28.316 4 28Z" fill="url(#o)"/><g filter="url(#p)"><path d="M21 18.1c1.5-.5 3.167.9 3.5 1.4.167-.5.9-1.5 2.5-1.5 2 0 .557 2.107 0 3.5-.625 1.562-1.64 3.48-2.314 4.698a.97.97 0 0 1-1.592.156C22.1 25.187 20.572 23.358 20 22.5c-1-1.5-.897-3.767 1-4.4Z" fill="#E4694E"/></g><path d="M23 17.1c1.5-.5 3.167.9 3.5 1.4.167-.5.9-1.5 2.5-1.5 2 0 2.557 2.107 2 3.5-.73 1.826-3.06 4.136-4.264 5.25a.956.956 0 0 1-1.381-.09c-.963-1.126-2.73-3.222-3.355-4.16-1-1.5-.897-3.767 1-4.4Z" fill="url(#q)"/><path d="M12 16c0 1.333.8 4 4 4s4-2.667 4-4" stroke="url(#r)" stroke-width="2" stroke-linecap="round"/><g opacity=".8" filter="url(#s)"><path d="M9.5 2.5 7 5" stroke="#fff"/></g><g opacity=".8" filter="url(#t)"><path d="m25 18.5 2.5 3 2-2.5" stroke="#fff"/></g><g filter="url(#u)"><circle cx="8.5" cy="24.5" r="1" fill="#fff"/></g><g opacity=".6" filter="url(#v)"><path d="M7.5 29.5 9 26" stroke="#F944A5" stroke-width="2"/></g><g filter="url(#w)"><path d="M26.5 24.5 23 20" stroke="#F944A5"/></g><g filter="url(#x)"><path d="M5.5 8.5 8 6" stroke="#F944A5"/></g></g><defs><filter id="k" x="5" y="7" width="10" height="7" filterUnits="userSpaceOnUse" color-interpolation-filters="sRGB"><feFlood flood-opacity="0" result="BackgroundImageFix"/><feBlend in="SourceGraphic" in2="BackgroundImageFix" result="shape"/><feGaussianBlur stdDeviation=".75" result="effect1_foregroundBlur_20_194"/></filter><filter id="l" x="16" y="7" width="10.001" height="7" filterUnits="userSpaceOnUse" color-interpolation-filters="sRGB"><feFlood flood-opacity="0" result="BackgroundImageFix"/><feBlend in="SourceGraphic" in2="BackgroundImageFix" result="shape"/><feGaussianBlur stdDeviation=".75" result="effect1_foregroundBlur_20_194"/></filter><filter id="m" x="6.375" y="6.875" width="8.75" height="5.75" filterUnits="userSpaceOnUse" color-interpolation-filters="sRGB"><feFlood flood-opacity="0" result="BackgroundImageFix"/><feBlend in="SourceGraphic" in2="BackgroundImageFix" result="shape"/><feGaussianBlur stdDeviation=".75" result="effect1_foregroundBlur_20_194"/></filter><filter id="n" x="17.375" y="6.875" width="8.75" height="5.75" filterUnits="userSpaceOnUse" color-interpolation-filters="sRGB"><feFlood flood-opacity="0" result="BackgroundImageFix"/><feBlend in="SourceGraphic" in2="BackgroundImageFix" result="shape"/><feGaussianBlur stdDeviation=".75" result="effect1_foregroundBlur_20_194"/></filter><filter id="p" x="17.373" y="15.994" width="12.653" height="12.707" filterUnits="userSpaceOnUse" color-interpolation-filters="sRGB"><feFlood flood-opacity="0" result="BackgroundImageFix"/><feBlend in="SourceGraphic" in2="BackgroundImageFix" result="shape"/><feGaussianBlur stdDeviation="1" result="effect1_foregroundBlur_20_194"/></filter><filter id="s" x="4.646" y=".146" width="7.207" height="7.207" filterUnits="userSpaceOnUse" color-interpolation-filters="sRGB"><feFlood flood-opacity="0" result="BackgroundImageFix"/><feBlend in="SourceGraphic" in2="BackgroundImageFix" result="shape"/><feGaussianBlur stdDeviation="1" result="effect1_foregroundBlur_20_194"/></filter><filter id="t" x="22.616" y="16.18" width="9.274" height="8.111" filterUnits="userSpaceOnUse" color-interpolation-filters="sRGB"><feFlood flood-opacity="0" result="BackgroundImageFix"/><feBlend in="SourceGraphic" in2="BackgroundImageFix" result="shape"/><feGaussianBlur stdDeviation="1" result="effect1_foregroundBlur_20_194"/></filter><filter id="u" x="5.5" y="21.5" width="6" height="6" filterUnits="userSpaceOnUse" color-interpolation-filters="sRGB"><feFlood flood-opacity="0" result="BackgroundImageFix"/><feBlend in="SourceGraphic" in2="BackgroundImageFix" result="shape"/><feGaussianBlur stdDeviation="1" result="effect1_foregroundBlur_20_194"/></filter><filter id="v" x="5.581" y="24.606" width="5.338" height="6.288" filterUnits="userSpaceOnUse" color-interpolation-filters="sRGB"><feFlood flood-opacity="0" result="BackgroundImageFix"/><feBlend in="SourceGraphic" in2="BackgroundImageFix" result="shape"/><feGaussianBlur stdDeviation=".5" result="effect1_foregroundBlur_20_194"/></filter><filter id="w" x="20.605" y="17.693" width="8.29" height="9.114" filterUnits="userSpaceOnUse" color-interpolation-filters="sRGB"><feFlood flood-opacity="0" result="BackgroundImageFix"/><feBlend in="SourceGraphic" in2="BackgroundImageFix" result="shape"/><feGaussianBlur stdDeviation="1" result="effect1_foregroundBlur_20_194"/></filter><filter id="x" x="3.146" y="3.646" width="7.207" height="7.207" filterUnits="userSpaceOnUse" color-interpolation-filters="sRGB"><feFlood flood-opacity="0" result="BackgroundImageFix"/><feBlend in="SourceGraphic" in2="BackgroundImageFix" result="shape"/><feGaussianBlur stdDeviation="1" result="effect1_foregroundBlur_20_194"/></filter><radialGradient id="b" cx="0" cy="0" r="1" gradientUnits="userSpaceOnUse" gradientTransform="rotate(132.839 10.786 10.065) scale(37.5033)"><stop stop-color="#FFF478"/><stop offset=".475" stop-color="#FFB02E"/><stop offset="1" stop-color="#F70A8D"/></radialGradient><radialGradient id="c" cx="0" cy="0" r="1" gradientUnits="userSpaceOnUse" gradientTransform="rotate(131.878 10.74 10.193) scale(38.9487)"><stop stop-color="#FFF478"/><stop offset=".475" stop-color="#FFB02E"/><stop offset="1" stop-color="#F70A8D"/></radialGradient><radialGradient id="d" cx="0" cy="0" r="1" gradientUnits="userSpaceOnUse" gradientTransform="rotate(101.31 2.876 12.808) scale(17.8466 22.8581)"><stop offset=".788" stop-color="#F59639" stop-opacity="0"/><stop offset=".973" stop-color="#FF7DCE"/></radialGradient><radialGradient id="e" cx="0" cy="0" r="1" gradientUnits="userSpaceOnUse" gradientTransform="matrix(-29 29 -29 -29 18 14)"><stop offset=".315" stop-opacity="0"/><stop offset="1"/></radialGradient><radialGradient id="f" cx="0" cy="0" r="1" gradientUnits="userSpaceOnUse" gradientTransform="rotate(77.692 -2.555 18.434) scale(28.1469)"><stop offset=".508" stop-color="#7D6133" stop-opacity="0"/><stop offset="1" stop-color="#715B32"/></radialGradient><radialGradient id="g" cx="0" cy="0" r="1" gradientUnits="userSpaceOnUse" gradientTransform="rotate(55.713 -7.36 23.86) scale(13.3135 9.65032)"><stop stop-color="#FFB849"/><stop offset="1" stop-color="#FFB847" stop-opacity="0"/></radialGradient><radialGradient id="h" cx="0" cy="0" r="1" gradientUnits="userSpaceOnUse" gradientTransform="matrix(11.49998 2 -2 11.49998 20.5 18)"><stop stop-color="#FFA64B"/><stop offset=".9" stop-color="#FFAE46" stop-opacity="0"/></radialGradient><radialGradient id="i" cx="0" cy="0" r="1" gradientUnits="userSpaceOnUse" gradientTransform="rotate(43.971 -9.827 29.173) scale(59.0529)"><stop offset=".185" stop-opacity="0"/><stop offset="1" stop-opacity=".4"/></radialGradient><radialGradient id="r" cx="0" cy="0" r="1" gradientUnits="userSpaceOnUse" gradientTransform="matrix(0 10.5 -6.42871 0 16 12)"><stop offset=".556" stop-color="#584343"/><stop offset=".74" stop-color="#66525E"/><stop offset="1" stop-color="#4E2553"/><stop offset="1" stop-color="#522C57"/></radialGradient><linearGradient id="j" x1="4.5" y1="3.5" x2="8.136" y2="8.277" gradientUnits="userSpaceOnUse"><stop stop-color="#DC2E50"/><stop offset="1" stop-color="#F70A8D"/></linearGradient><linearGradient id="o" x1="6" y1="24.5" x2="9.342" y2="29.907" gradientUnits="userSpaceOnUse"><stop stop-color="#CA0B4A"/><stop offset="1" stop-color="#F70A8D"/></linearGradient><linearGradient id="q" x1="29.099" y1="18.037" x2="25.876" y2="25.428" gradientUnits="userSpaceOnUse"><stop stop-color="#CA0B4A"/><stop offset="1" stop-color="#F70A8D"/></linearGradient><clipPath id="a"><path fill="#fff" d="M0 0h32v32H0z"/></clipPath></defs></svg>
